icons/svg/home.svg

<svg width="24" height="24" viewBox="0 0 24 24" fill="none" xmlns="http://www.w3.org/2000/svg">
<path d="M15.2903 20.663H18.3065C19.5179 20.663 20.5 19.6809 20.5 18.4694V12.0154C20.5 11.064 20.0882 10.1591 19.3707 9.53424L13.4407 4.36939C12.6149 3.65014 11.3851 3.65014 10.5593 4.36939L4.6293 9.53424C3.91184 10.1591 3.5 11.064 3.5 12.0154V18.4694C3.5 19.6809 4.48209 20.663 5.69355 20.663H8.98387M15.2903 20.663V20.1146V14.0823C15.2903 13.1737 14.5538 12.4372 13.6452 12.4372H10.629C9.72043 12.4372 8.98387 13.1737 8.98387 14.0823V20.1146V20.663M15.2903 20.663H8.98387" stroke="currentColor" stroke-width="1.5" stroke-linejoin="round"/>
</svg>

<svg xmlns="http://www.w3.org/2000/svg" width="24" height="24" fill="none" viewBox="0 0 24 24"><path stroke="currentColor" stroke-linejoin="round" stroke-width="1.5" d="M15.29 20.663h3.017a2.194 2.194 0 0 0 2.193-2.194v-6.454a3.3 3.3 0 0 0-1.13-2.48l-5.93-5.166a2.194 2.194 0 0 0-2.88 0L4.63 9.534a3.3 3.3 0 0 0-1.13 2.481v6.454c0 1.212.982 2.194 2.194 2.194h3.29m6.306 0v-6.581c0-.908-.736-1.645-1.645-1.645H10.63c-.909 0-1.645.737-1.645 1.645v6.581m6.306 0H8.984"/></svg>
